app/src/main/assets/symbols/accommodation/alpinehut.svg

<?xml version="1.0" encoding="UTF-8" standalone="no"?>
<svg
   xmlns:dc="http://purl.org/dc/elements/1.1/"
   xmlns:cc="http://creativecommons.org/ns#"
   xmlns:rdf="http://www.w3.org/1999/02/22-rdf-syntax-ns#"
   xmlns:svg="http://www.w3.org/2000/svg"
   xmlns="http://www.w3.org/2000/svg"
   version="1.1"
   width="14"
   height="14"
   viewBox="0 0 14 14"
   id="svg2">
  <metadata
     id="metadata8">
    <rdf:RDF>
      <cc:Work
         rdf:about="">
        <dc:format>image/svg+xml</dc:format>
        <dc:type
           rdf:resource="http://purl.org/dc/dcmitype/StillImage" />
        <dc:title></dc:title>
      </cc:Work>
    </rdf:RDF>
  </metadata>
  <defs
     id="defs6" />
  <rect
     width="14"
     height="14"
     x="0"
     y="0"
     id="canvas"
     style="fill:none;stroke:none;visibility:hidden" />
  <path
     id="path757"
     d="M 7 0 L 0 3.5 L 0 5.5 L 1.5 4.8496094 L 1.5 14 L 3 14 L 3 4.1992188 L 7 2.5 L 11 4.1992188 L 11 14 L 12.5 14 L 12.5 4.8496094 L 14 5.5 L 14 3.5 L 7 0 z M 6.9726562 5.0488281 C 6.5840971 5.0488281 6.2675781 5.3630448 6.2675781 5.7519531 C 6.2675781 6.1417342 6.584097 6.4550781 6.9726562 6.4550781 C 7.361041 6.4550781 7.6757812 6.1417342 7.6757812 5.7519531 C 7.6757812 5.3630448 7.3608664 5.0488281 6.9726562 5.0488281 z M 5.0488281 6.1875 C 4.9393822 6.162539 4.8312529 6.2261094 4.8066406 6.3339844 L 4.3144531 8.375 C 4.2879211 8.483224 4.3541425 8.5899565 4.4628906 8.6171875 L 5.0488281 8.7578125 C 5.1556558 8.7859125 5.2664033 8.7195541 5.2910156 8.6113281 L 5.7832031 6.5722656 C 5.8095609 6.4640416 5.7430227 6.355181 5.6367188 6.328125 L 5.0488281 6.1875 z M 6.7675781 6.5644531 C 6.1938161 6.5499631 6.0488281 7.1523437 6.0488281 7.1523438 L 4.5605469 13.40625 C 4.5553069 13.43959 4.5527344 13.472519 4.5527344 13.505859 C 4.5527344 13.78026 4.7744278 14 5.0488281 14 C 5.2720838 14 5.4610884 13.85019 5.5214844 13.646484 L 6.3730469 10.126953 L 7.1816406 13.625 C 7.2340066 13.841273 7.4308241 14 7.6621094 14 C 7.9354624 14 8.1542969 13.780085 8.1542969 13.505859 C 8.1542969 13.468499 8.1525944 13.431918 8.1464844 13.396484 L 7.0332031 8.7480469 L 7.1269531 8.3398438 L 7.1992188 8.6621094 C 7.2652007 8.8720994 7.4570312 8.890625 7.4570312 8.890625 L 8.6015625 9.1835938 C 8.6249525 9.1875937 8.648315 9.1894531 8.671875 9.1894531 C 8.859346 9.1894531 9.0097656 9.0406386 9.0097656 8.8535156 C 9.0097656 8.6934486 8.900292 8.5569194 8.75 8.5214844 L 7.7578125 8.2734375 L 7.4863281 7.1660156 C 7.3564592 6.5486156 6.7675781 6.5644531 6.7675781 6.5644531 z M 9.8300781 7.2792969 C 9.7478581 7.2792969 9.6872029 7.3408519 9.6699219 7.4199219 L 8.4882812 13.826172 C 8.4882812 13.830372 8.4863281 13.833837 8.4863281 13.835938 C 8.4863281 13.925487 8.5592405 13.998047 8.6484375 13.998047 C 8.7296075 13.998047 8.7993749 13.935444 8.8105469 13.857422 L 9.9902344 7.4511719 L 9.9902344 7.4394531 C 9.9902344 7.3521731 9.9192711 7.2792969 9.8300781 7.2792969 z "
     style="fill:#0092da;stroke-width:0.17455491" />
</svg>

<?xml version="1.0" encoding="UTF-8"?>
<svg version="1.1" viewBox="0 0 14 14" xmlns="http://www.w3.org/2000/svg" xmlns:cc="http://creativecommons.org/ns#" xmlns:dc="http://purl.org/dc/elements/1.1/" xmlns:rdf="http://www.w3.org/1999/02/22-rdf-syntax-ns#">
<metadata>
<rdf:RDF>
<cc:Work rdf:about="">
<dc:format>image/svg+xml</dc:format>
<dc:type rdf:resource="http://purl.org/dc/dcmitype/StillImage"/>
<dc:title/>
</cc:Work>
</rdf:RDF>
</metadata>
<rect width="14" height="14" fill="none" visibility="hidden"/>
<path d="m7 0-7 3.5v2l1.5-0.65039v9.1504h1.5v-9.8008l4-1.6992 4 1.6992v9.8008h1.5v-9.1504l1.5 0.65039v-2l-7-3.5zm-0.027344 5.0488c-0.38856 0-0.70508 0.31422-0.70508 0.70312 0 0.38978 0.31652 0.70312 0.70508 0.70312 0.38838 0 0.70312-0.31334 0.70312-0.70312 0-0.38891-0.31491-0.70312-0.70312-0.70312zm-1.9238 1.1387c-0.10945-0.024961-0.21758 0.038609-0.24219 0.14648l-0.49219 2.041c-0.026532 0.10822 0.039689 0.21496 0.14844 0.24219l0.58594 0.14062c0.10683 0.0281 0.21758-0.038258 0.24219-0.14648l0.49219-2.0391c0.026358-0.10822-0.04018-0.21708-0.14648-0.24414l-0.58789-0.14062zm1.7188 0.37695c-0.57376-0.01449-0.71875 0.58789-0.71875 0.58789l-1.4883 6.2539c-0.00524 0.03334-0.0078125 0.066269-0.0078125 0.099609 0 0.2744 0.22169 0.49414 0.49609 0.49414 0.22326 0 0.41226-0.14981 0.47266-0.35352l0.85156-3.5195 0.80859 3.498c0.052366 0.21627 0.24918 0.375 0.48047 0.375 0.27335 0 0.49219-0.21992 0.49219-0.49414 0-0.03736-0.0017025-0.073941-0.0078125-0.10938l-1.1133-4.6484 0.09375-0.4082 0.072266 0.32227c0.065982 0.20999 0.25781 0.22852 0.25781 0.22852l1.1445 0.29297c0.02339 0.0039999 0.046752 0.0058593 0.070312 0.0058593 0.18747 0 0.33789-0.14881 0.33789-0.33594 0-0.16007-0.10947-0.2966-0.25977-0.33203l-0.99219-0.24805-0.27148-1.1074c-0.12987-0.6174-0.71875-0.60156-0.71875-0.60156zm3.0625 0.71484c-0.08222 0-0.14288 0.061555-0.16016 0.14062l-1.1816 6.4063c0 0.0042-0.0019531 0.007665-0.0019531 0.009766 0 0.089549 0.072912 0.16211 0.16211 0.16211 0.08117 0 0.15094-0.062603 0.16211-0.14062l1.1797-6.4063v-0.011719c0-0.08728-0.070963-0.16016-0.16016-0.16016z" fill="#0092da" stroke-width=".17455"/>
</svg>
